X:87
%%etbk:tnset id:30,pos:3,rep:3x,ant:
%%etbk:wsite http://www.thesession.org/tunes/display/3808
%%etbk:pldat 2013-10-21T18:10,2013-08-28T17:45
T: Land Of Sunshine, The
Z: Piano Box Version by Martin Fleischmann
H: Created 2013-02-19 /  Last Modified 2013-02-19
M: 4/4
L: 1/8
R: reel
K:Dmaj
|: "D"!1!D2!3!F!1!D "A"!1!C!2!E!5!A!4!G | "D"!1!F!4!ddc !4!d!2!A!1!F!2!A | "G"!1!G!2!B!5!e!1!G "D"!3!F!5!A!1!DF | "A"!4!GFE!1!D !2!C!4!E!1!A,!2!C |
"D"!1!D2!3!F!1!D "A"!1!C!2!E!5!A!4!G | "D"!1!F!4!ddc !4!d!2!A!1!F!2!A | "G"!1!G!2!B!5!ed "A"!3!c!2!A!1!G!2!E |1 {G}!2!E!1!D!2!C!4!E "D"!1!D4,:|2 {G}!2!E!1!D!2!C!4!E "D"!1!D2!3!fg||
|: "D"!5!a!3!f!1!df "A"!4!g!2!e!1!c!2!e | "D"!1!d2!5!e!3!c !4!d!2!A!1!F!2!A | "G"!1!G!2!B!5!e!1!G "D"!1!F!4!d!1!d!3!f | "A"!4!g!2!e{g}ed !2!ef!4!g!3!^g |
"D"!5!a!3!f!1!df "A"!4!g!2!e!1!c!2!e | "D"!1!d2!5!e!3!c !4!d!2!A!1!F!2!A  | "G"!1!G!2!B!5!ed "A"!3!c!2!A!1!G!2!E |1 {G}!2!E!1!D!2!C!4!E "D"!1!D2!3!fg :|2 {G}!2!E!1!D!2!C!4!E "D"!1!D4,||


